frontend/public/svg/objects/guitar.svg

<svg width="162" height="152" viewBox="0 0 162 152" fill="none" xmlns="http://www.w3.org/2000/svg">
<g clip-path="url(#clip0)">
<path d="M159.553 16.6273C159.369 16.4485 159.175 16.2797 158.973 16.1212C158.633 15.8643 158.329 15.5627 158.069 15.2247C157.186 13.9494 156.316 12.6617 155.452 11.3733C153.982 9.1884 152.458 6.92206 150.867 4.764C149.794 3.37389 148.502 2.16676 147.042 1.18955C145.127 -0.145441 143.131 -0.0173458 141.262 1.54736L141.006 1.76256C138.053 4.24483 134.997 6.80064 132.036 9.3702C127.983 12.8777 126.02 16.7868 126.041 21.3346C125.997 22.8655 125.815 24.3892 125.495 25.887L125.4 26.3996C125.292 27.1234 124.946 27.7905 124.416 28.295C122.149 30.0888 119.843 31.8221 117.617 33.5011L115.331 35.2345L115.128 35.1033C114.326 34.5638 113.537 34.0531 112.762 33.5517C111.133 32.5502 109.561 31.4582 108.054 30.2811C103 26.0542 96.6157 23.747 90.0267 23.7663C88.5624 23.7674 87.1001 23.871 85.6496 24.0761C74.3193 25.6277 66.3533 30.0114 61.2828 37.4772C58.4333 41.8737 55.9606 46.5031 53.8911 51.3161C51.7599 56.0575 48.3608 58.8902 43.5117 59.9693C42.7294 60.1445 41.947 60.3132 41.1647 60.4819C40.0784 60.7175 38.9988 60.9537 37.9204 61.1965C31.6688 62.6195 23.5617 64.8248 16.386 69.3167C6.91039 75.2514 -1.82349 88.2475 1.3801 102.775C5.41329 121.045 15.2866 135.444 30.7243 145.581C41.0702 152.372 52.0159 152.79 63.259 146.836C73.0177 141.662 79.91 133.354 84.3409 121.435C85.9305 116.897 87.2655 112.273 88.3406 107.587C88.7036 105.877 89.5207 104.296 90.7067 103.012C91.8921 101.727 93.4023 100.787 95.0779 100.289C96.9728 99.6415 98.9083 99.0279 100.777 98.4345L102.449 97.895C114.502 94.0436 122.804 85.9779 127.133 73.9328C131.071 62.9864 129.426 53.2411 122.244 44.9725C121.858 44.5159 121.5 44.0363 121.171 43.5365C121.003 43.3002 120.834 43.0509 120.652 42.7943L120.463 42.5382L120.706 42.3354C121.448 41.7217 122.17 41.108 122.884 40.5009C124.853 38.8351 126.715 37.2573 128.664 35.7602C129.366 35.2207 130.553 35.2411 131.342 35.2542C132.502 35.2745 133.682 35.3421 134.828 35.409C137.012 35.5889 139.206 35.6072 141.392 35.4635C143.77 35.3147 146.067 34.54 148.049 33.2176C151.945 30.148 155.67 26.8675 159.207 23.391L159.605 23.0134C160.037 22.6398 160.389 22.1836 160.642 21.6716C160.895 21.1596 161.042 20.6022 161.076 20.0323C161.06 19.3923 160.917 18.7618 160.656 18.1773C160.395 17.5927 160.02 17.0658 159.553 16.6273ZM117.051 69.4211C113.746 79.9356 107.359 86.329 97.5261 88.9596C95.032 89.6271 92.6633 90.3622 90.4783 91.1446C84.0239 93.4713 79.8496 97.7605 78.0551 103.891C77.8261 104.674 77.5898 105.456 77.3542 106.238C76.7635 108.207 76.1465 110.251 75.668 112.281C73.6583 120.759 69.6652 127.813 63.8051 133.249C58.5038 138.165 53.1494 140.594 47.5646 140.594C45.9028 140.586 44.2478 140.38 42.6349 139.98C40.8664 139.521 39.174 138.808 37.6106 137.862C23.5348 129.499 14.8619 116.975 11.827 100.64C10.2013 91.8659 13.6648 84.2786 21.8559 78.6945C26.8867 75.2619 32.9296 73.5554 37.7924 72.1863C39.3637 71.7413 40.9822 71.3567 42.5469 70.9858C43.2551 70.8244 43.9633 70.6577 44.6649 70.4804C53.0142 68.43 58.7604 63.5811 62.2469 55.6565C63.9127 51.8661 66.2391 46.9764 69.4361 42.7141C77.3404 32.1727 93.7764 29.8053 104.616 37.6492C105.466 38.3142 106.249 39.0596 106.956 39.8749C107.32 40.2687 107.698 40.6702 108.102 41.0818L108.345 41.3181L81.3276 67.7895L81.1051 67.6543C74.5162 63.7294 69.1073 64.0326 64.0899 68.5987C58.1343 74.0142 56.8197 81.0212 60.3868 88.3256L60.5017 88.5547L41.4489 105.751L41.2264 105.589C40.9232 105.373 40.6468 105.129 40.3731 104.894C39.9446 104.449 39.4184 104.109 38.836 103.902C37.7859 103.673 36.4213 103.66 35.7473 104.153C35.2813 104.489 35.0187 106.162 35.3489 106.675C37.568 110.074 40.549 114.512 43.874 118.666C44.0937 118.96 44.3708 119.206 44.6884 119.389C45.006 119.572 45.3576 119.688 45.7216 119.731C46.5305 119.791 47.3304 119.529 47.9473 119.003C49.0466 118.092 49.2219 116.359 48.3719 114.788C47.8804 113.924 47.3307 113.095 46.7265 112.306C46.4364 111.912 46.1397 111.504 45.8496 111.079L45.6744 110.829L47.1315 109.575C48.0011 108.826 48.8648 108.084 49.7141 107.336L53.0661 104.415C56.6273 101.306 60.3094 98.1024 63.891 94.9061C65.1788 93.7529 66.2778 93.2403 68.0854 94.0226C72.28 95.8433 76.4753 95.3714 80.5558 92.6332C89.2555 86.7859 90.4895 83.218 87.1651 73.56L87.0909 73.3578L112.274 49.3418L112.503 49.6386C117.752 56.3102 119.202 62.6031 117.051 69.4211ZM81.9367 77.9259L81.984 78.6341C82.0746 79.7066 81.9439 80.7856 81.6007 81.8049C81.2574 82.8248 80.7081 83.7634 79.9874 84.5622C78.999 85.6077 77.8097 86.4439 76.4917 87.0208C75.1732 87.5977 73.7522 87.9036 72.3128 87.9206L71.4091 87.9613L81.9367 77.9259ZM64.5165 83.8402L64.3275 83.3617C63.0463 80.1457 64.3209 76.1453 67.578 73.178C70.2894 70.7029 72.6495 70.3859 75.7317 72.0721L76.1255 72.2873L64.5165 83.8402ZM150.01 20.2261C149.146 21.0491 148.304 21.8446 147.481 22.661C146.969 23.1862 146.487 23.7399 146.037 24.3195C145.005 25.6079 143.932 26.9364 142.563 27.3006C140.244 27.9215 137.788 27.9413 135.192 27.9616C134.086 27.9682 132.939 27.9754 131.779 28.0273L131.354 28.0477L131.428 27.636C131.617 26.5859 131.799 25.5654 131.967 24.5678C132.42 21.9641 132.844 19.5092 133.418 17.0854C133.633 16.175 134.625 15.4328 135.42 14.8329L135.562 14.7246C137.296 13.4165 139.041 12.1688 140.89 10.847C141.612 10.3281 142.345 9.79964 143.089 9.26191L143.244 9.1542L143.413 9.22843C144.883 9.81914 145.611 11.0491 146.32 12.2364C146.611 12.7588 146.94 13.2592 147.304 13.7335C148.181 14.8126 149.044 15.9053 149.955 17.065L151.405 18.8931L150.01 20.2261Z" fill="black"/>
</g>
<defs>
<clipPath id="clip0">
<rect width="160.803" height="150.958" fill="white" transform="translate(0.361084 0.143066)"/>
</clipPath>
</defs>
</svg>

<svg xmlns="http://www.w3.org/2000/svg" width="162" height="152" fill="none" viewBox="0 0 162 152"><g clip-path="url(#a)"><path fill="#000" d="M159.553 16.627a7 7 0 0 0-.58-.506 4.8 4.8 0 0 1-.904-.896 313 313 0 0 1-2.617-3.852c-1.47-2.185-2.994-4.45-4.585-6.609a16.3 16.3 0 0 0-3.825-3.574c-1.915-1.335-3.911-1.207-5.78.357l-.256.216c-2.953 2.482-6.009 5.038-8.97 7.607-4.053 3.508-6.016 7.417-5.995 11.965a25.3 25.3 0 0 1-.546 4.552l-.095.513a3.3 3.3 0 0 1-.984 1.895c-2.267 1.794-4.573 3.527-6.799 5.206l-2.286 1.733-.203-.13c-.802-.54-1.591-1.05-2.366-1.552a51 51 0 0 1-4.708-3.27 27.97 27.97 0 0 0-18.027-6.516 31 31 0 0 0-4.377.31c-11.33 1.552-19.297 5.935-24.367 13.401a93 93 0 0 0-7.392 13.84c-2.131 4.74-5.53 7.573-10.38 8.652q-1.173.261-2.346.513a421 421 0 0 0-3.245.715c-6.251 1.422-14.358 3.628-21.534 8.12C6.91 75.25-1.824 88.247 1.38 102.775c4.033 18.27 13.907 32.669 29.344 42.806 10.346 6.791 21.292 7.209 32.535 1.255 9.759-5.174 16.651-13.482 21.082-25.401a130 130 0 0 0 4-13.848 9.72 9.72 0 0 1 6.737-7.298c1.895-.648 3.83-1.261 5.699-1.855l1.672-.539c12.053-3.851 20.355-11.917 24.684-23.962 3.938-10.947 2.293-20.692-4.889-28.96a15 15 0 0 1-1.073-1.437c-.168-.236-.337-.485-.519-.742l-.189-.256.243-.203c.742-.613 1.464-1.227 2.178-1.834 1.969-1.666 3.831-3.244 5.78-4.74.702-.54 1.889-.52 2.678-.507 1.16.02 2.34.088 3.486.155 2.184.18 4.378.198 6.564.055a13.5 13.5 0 0 0 6.657-2.246c3.896-3.07 7.621-6.35 11.158-9.827l.398-.378a4.28 4.28 0 0 0 1.471-2.98 4.85 4.85 0 0 0-1.523-3.406m-42.502 52.794c-3.305 10.515-9.692 16.908-19.525 19.539a90 90 0 0 0-7.048 2.185C84.024 93.47 79.85 97.76 78.055 103.89q-.346 1.174-.7 2.347c-.592 1.969-1.209 4.013-1.687 6.043-2.01 8.478-6.003 15.532-11.863 20.968-5.301 4.916-10.656 7.345-16.24 7.345a21 21 0 0 1-4.93-.614 18.9 18.9 0 0 1-5.024-2.118c-14.076-8.363-22.75-20.887-25.784-37.222-1.626-8.774 1.838-16.361 10.029-21.945 5.03-3.433 11.074-5.14 15.936-6.509 1.572-.445 3.19-.83 4.755-1.2a93 93 0 0 0 2.118-.506c8.35-2.05 14.095-6.899 17.582-14.824 1.666-3.79 3.992-8.68 7.19-12.942 7.903-10.541 24.34-12.909 35.179-5.065.85.665 1.633 1.41 2.34 2.226.364.394.742.795 1.146 1.207l.243.236L81.328 67.79l-.223-.136c-6.589-3.925-11.998-3.621-17.015.945-5.956 5.415-7.27 12.422-3.703 19.727l.115.229-19.053 17.196-.223-.162c-.303-.216-.58-.46-.853-.695a4 4 0 0 0-1.537-.992c-1.05-.229-2.415-.242-3.089.251-.466.336-.728 2.009-.398 2.522 2.219 3.399 5.2 7.837 8.525 11.991a2.7 2.7 0 0 0 1.848 1.065 3.08 3.08 0 0 0 2.225-.728c1.1-.911 1.275-2.644.425-4.215a22 22 0 0 0-1.645-2.482c-.29-.394-.587-.802-.877-1.227l-.176-.25 1.458-1.254c.87-.749 1.733-1.491 2.582-2.239l3.352-2.921c3.561-3.109 7.243-6.313 10.825-9.509 1.288-1.153 2.387-1.666 4.194-.883 4.195 1.82 8.39 1.348 12.47-1.39 8.7-5.847 9.935-9.415 6.61-19.073l-.074-.202 25.183-24.016.229.297c5.249 6.671 6.699 12.964 4.548 19.782m-35.114 8.505.047.708a7.86 7.86 0 0 1-1.997 5.928 10.73 10.73 0 0 1-7.674 3.359l-.904.04zm-17.42 5.914-.19-.478c-1.28-3.216-.006-7.217 3.251-10.184 2.711-2.475 5.072-2.792 8.154-1.106l.394.215zm85.493-63.614c-.864.823-1.706 1.619-2.529 2.435a20 20 0 0 0-1.444 1.659c-1.032 1.288-2.105 2.616-3.474 2.98-2.319.622-4.775.641-7.371.662a88 88 0 0 0-3.413.065l-.425.02.074-.411q.285-1.573.539-3.068c.453-2.604.877-5.059 1.451-7.483.215-.91 1.207-1.652 2.002-2.252l.142-.108c1.734-1.309 3.479-2.556 5.328-3.878q1.083-.778 2.199-1.585l.155-.108.169.074c1.47.591 2.198 1.821 2.907 3.008q.437.785.984 1.497c.877 1.08 1.74 2.172 2.651 3.332l1.45 1.828z"/></g><defs><clipPath id="a"><path fill="#fff" d="M.361.143h160.803v150.958H.361z"/></clipPath></defs></svg>
